X: 4
T: Palm Sunday
R: slide
M: 12/8
L: 1/8
K: Ador
|: A |AGE G2 A G2 E E2 D | EAA c2 d e2 d def |
g3 gfe dcB c2 d | edc BAG B2 A A2 :|
|: z |a2 a a^ga a2 e e2 f | g2 a g2 e dBG GBd |
g2 g e2 e dcB c2 d | edc BAG B2 A A2 :|


Tune 770	Setting 29548

